icons/camera-3-fill.svg

<svg xmlns="http://www.w3.org/2000/svg" width="24" height="24" fill="none"><g clip-path="url(#a)"><g><path fill="#121212" d="M2.00002 6C2.00002 5.448 2.45502 5 2.99202 5H21.008C21.556 5 22 5.445 22 6V20C22 20.552 21.545 21 21.008 21H2.99202C2.86115 20.9997 2.73161 20.9736 2.61085 20.9232C2.4901 20.8727 2.38049 20.7989 2.28832 20.706C2.19615 20.6131 2.12324 20.5029 2.07376 20.3818C2.02429 20.2606 1.99923 20.1309 2.00002 20V6ZM14 18C15.3261 18 16.5979 17.4732 17.5356 16.5355C18.4732 15.5979 19 14.3261 19 13C19 11.6739 18.4732 10.4021 17.5356 9.46447C16.5979 8.52678 15.3261 8 14 8C12.6739 8 11.4022 8.52678 10.4645 9.46447C9.5268 10.4021 9.00002 11.6739 9.00002 13C9.00002 14.3261 9.5268 15.5979 10.4645 16.5355C11.4022 17.4732 12.6739 18 14 18ZM4.00002 7V9H7.00002V7H4.00002ZM4.00002 2H10V4H4.00002V2Z"/></g></g><defs><clipPath id="a"><rect width="24" height="24" fill="white"/></clipPath></defs></svg>

<svg width="24" height="24" fill="none" xmlns="http://www.w3.org/2000/svg"><g clip-path="url(#a)"><path d="M2 6c0-.552.455-1 .992-1h18.016c.548 0 .992.445.992 1v14c0 .552-.455 1-.992 1H2.992A.996.996 0 0 1 2 20V6Zm12 12a5 5 0 1 0 0-10 5 5 0 0 0 0 10ZM4 7v2h3V7H4Zm0-5h6v2H4V2Z" /></g><defs><clipPath id="a"><path fill="#fff" d="M0 0h24v24H0z"/></clipPath></defs></svg>
